flaticon/sport/world-cup.svg

<svg xmlns="http://www.w3.org/2000/svg" width="32" height="32" viewBox="0 0 24 24">
    <path d="M 17.601562 20.398438 L 16.382812 20.398438 C 16.476562 19.746094 16.421875 18.9375 15.867188 17.445312 C 15.835938 17.355469 15.691406 17.046875 15.355469 16.3125 C 15.070312 15.695312 14.730469 14.957031 14.546875 14.535156 C 15.046875 13.839844 15.519531 13.121094 15.957031 12.371094 C 16.398438 11.609375 16.769531 10.816406 17.070312 10 L 17.175781 9.90625 C 18.460938 8.839844 19.199219 7.269531 19.199219 5.601562 C 19.199219 2.511719 16.6875 0 13.601562 0 C 10.511719 0 8 2.511719 8 5.601562 C 8 7.257812 8.730469 8.773438 9.914062 9.808594 C 10.242188 11 10.625 12.160156 11.058594 13.265625 C 11.054688 13.273438 11.050781 13.28125 11.046875 13.289062 C 10.703125 13.964844 9.988281 14.9375 9.523438 15.449219 C 7.785156 17.378906 7.4375 19.253906 7.421875 20.398438 L 6 20.398438 L 6 21.601562 L 4.800781 21.601562 L 4.800781 24 L 18.800781 24 L 18.800781 21.601562 L 17.601562 21.601562 Z M 14 15.273438 C 14.1875 15.6875 14.421875 16.199219 14.628906 16.648438 C 14.84375 17.117188 15.085938 17.648438 15.117188 17.722656 C 15.667969 19.203125 15.664062 19.90625 15.574219 20.398438 L 11.605469 20.398438 C 11.570312 20.261719 11.542969 20.117188 11.527344 19.972656 C 11.523438 19.953125 11.523438 19.933594 11.519531 19.914062 C 11.507812 19.773438 11.503906 19.636719 11.507812 19.492188 C 11.507812 19.46875 11.511719 19.441406 11.511719 19.414062 C 11.523438 19.273438 11.539062 19.128906 11.566406 18.984375 C 11.570312 18.960938 11.574219 18.941406 11.582031 18.917969 C 11.613281 18.765625 11.652344 18.609375 11.703125 18.453125 C 11.898438 17.878906 12.246094 17.316406 12.734375 16.777344 C 13 16.488281 13.257812 16.183594 13.511719 15.875 C 13.597656 15.773438 13.679688 15.667969 13.761719 15.5625 C 13.839844 15.464844 13.921875 15.371094 14 15.273438 Z M 13.601562 0.800781 C 16.246094 0.800781 18.398438 2.953125 18.398438 5.601562 C 18.398438 6.566406 18.113281 7.492188 17.585938 8.273438 C 17.605469 8.199219 17.621094 8.121094 17.636719 8.046875 C 17.65625 7.945312 17.679688 7.847656 17.699219 7.746094 C 17.742188 7.539062 17.78125 7.328125 17.8125 7.121094 C 17.820312 7.0625 17.824219 7.003906 17.824219 6.945312 C 17.820312 6.542969 17.59375 6.167969 17.222656 5.976562 C 16.957031 5.839844 16.652344 5.8125 16.371094 5.90625 C 16.085938 5.996094 15.855469 6.195312 15.71875 6.464844 C 15.183594 7.539062 14.339844 8.414062 13.285156 8.988281 L 12.445312 9.449219 C 12.375 9.484375 12.316406 9.53125 12.261719 9.578125 C 12.242188 9.597656 12.230469 9.617188 12.210938 9.636719 C 12.179688 9.671875 12.144531 9.707031 12.117188 9.746094 C 12.101562 9.773438 12.089844 9.796875 12.074219 9.824219 C 12.050781 9.863281 12.03125 9.902344 12.015625 9.945312 C 12.003906 9.976562 11.996094 10.003906 11.988281 10.035156 C 11.984375 10.058594 11.972656 10.082031 11.96875 10.105469 C 11.953125 10.101562 11.941406 10.097656 11.925781 10.09375 C 11.902344 10.082031 11.878906 10.074219 11.855469 10.0625 C 11.714844 10.007812 11.578125 9.949219 11.441406 9.878906 C 11.429688 9.875 11.417969 9.867188 11.40625 9.859375 C 11.09375 9.699219 10.796875 9.503906 10.519531 9.273438 L 10.359375 9.136719 C 9.390625 8.25 8.800781 6.984375 8.800781 5.601562 C 8.800781 2.953125 10.953125 0.800781 13.601562 0.800781 Z M 10.953125 10.527344 C 11.089844 10.601562 11.234375 10.671875 11.378906 10.734375 C 11.429688 10.757812 11.480469 10.773438 11.535156 10.792969 C 11.628906 10.832031 11.722656 10.871094 11.820312 10.902344 C 11.839844 10.910156 11.859375 10.917969 11.878906 10.921875 C 11.875 10.9375 11.875 10.953125 11.871094 10.96875 C 11.855469 11.078125 11.835938 11.183594 11.816406 11.28125 C 11.8125 11.308594 11.808594 11.332031 11.800781 11.355469 C 11.78125 11.453125 11.761719 11.542969 11.738281 11.628906 C 11.730469 11.660156 11.722656 11.691406 11.714844 11.71875 C 11.691406 11.796875 11.671875 11.875 11.644531 11.945312 C 11.632812 11.988281 11.617188 12.027344 11.601562 12.066406 C 11.578125 12.128906 11.558594 12.191406 11.53125 12.253906 C 11.53125 12.257812 11.53125 12.257812 11.53125 12.261719 C 11.324219 11.695312 11.132812 11.117188 10.953125 10.527344 Z M 10.117188 15.988281 C 10.625 15.421875 11.378906 14.394531 11.757812 13.652344 C 11.871094 13.429688 11.972656 13.226562 12.066406 13.03125 C 12.078125 13.007812 12.085938 12.988281 12.097656 12.96875 C 12.105469 12.949219 12.113281 12.925781 12.125 12.90625 C 12.132812 12.882812 12.144531 12.863281 12.152344 12.839844 C 12.195312 12.746094 12.238281 12.648438 12.277344 12.550781 C 12.285156 12.53125 12.292969 12.515625 12.296875 12.5 C 12.335938 12.398438 12.375 12.292969 12.410156 12.1875 C 12.421875 12.144531 12.433594 12.105469 12.449219 12.066406 C 12.46875 11.996094 12.488281 11.925781 12.507812 11.851562 C 12.523438 11.800781 12.535156 11.75 12.546875 11.695312 C 12.574219 11.59375 12.59375 11.488281 12.617188 11.375 C 12.628906 11.304688 12.640625 11.230469 12.652344 11.15625 C 12.652344 11.144531 12.65625 11.136719 12.65625 11.125 L 12.667969 11.128906 L 12.695312 10.863281 C 12.699219 10.816406 12.707031 10.765625 12.710938 10.714844 C 12.710938 10.699219 12.714844 10.6875 12.714844 10.675781 L 12.753906 10.332031 L 12.746094 10.332031 C 12.75 10.3125 12.75 10.292969 12.753906 10.273438 C 12.757812 10.21875 12.785156 10.175781 12.828125 10.152344 L 13.667969 9.691406 C 14.867188 9.039062 15.824219 8.042969 16.4375 6.820312 C 16.472656 6.746094 16.539062 6.691406 16.617188 6.664062 C 16.695312 6.640625 16.78125 6.648438 16.855469 6.6875 C 16.867188 6.691406 16.875 6.699219 16.886719 6.707031 C 16.984375 6.773438 17.039062 6.886719 17.023438 6.996094 C 16.890625 7.84375 16.679688 8.6875 16.398438 9.503906 L 16.347656 9.648438 C 16.058594 10.449219 15.699219 11.226562 15.265625 11.96875 C 14.820312 12.734375 14.339844 13.46875 13.824219 14.175781 L 13.785156 14.230469 C 13.714844 14.328125 13.636719 14.417969 13.566406 14.511719 C 13.371094 14.769531 13.179688 15.023438 12.980469 15.269531 C 12.707031 15.601562 12.429688 15.925781 12.144531 16.238281 C 11.582031 16.859375 11.179688 17.519531 10.949219 18.199219 C 10.890625 18.367188 10.847656 18.53125 10.8125 18.699219 C 10.804688 18.734375 10.796875 18.773438 10.789062 18.808594 C 10.757812 18.972656 10.734375 19.132812 10.722656 19.296875 C 10.71875 19.320312 10.71875 19.34375 10.71875 19.367188 C 10.707031 19.515625 10.707031 19.664062 10.714844 19.808594 C 10.714844 19.835938 10.71875 19.863281 10.71875 19.894531 C 10.730469 20.050781 10.75 20.207031 10.78125 20.359375 C 10.785156 20.375 10.785156 20.386719 10.785156 20.398438 L 8.226562 20.398438 C 8.234375 19.386719 8.550781 17.722656 10.117188 15.988281 Z M 6.800781 21.199219 L 16.800781 21.199219 L 16.800781 21.601562 L 6.800781 21.601562 Z M 18 22.398438 L 18 23.199219 L 5.601562 23.199219 L 5.601562 22.398438 Z M 18 22.398438"/>
</svg>

<svg xmlns="http://www.w3.org/2000/svg" width="32" height="32" viewBox="0 0 24 24">
    <path d="M17.602 20.398h-1.22c.095-.652.04-1.46-.515-2.953-.031-.09-.176-.398-.512-1.133-.285-.617-.625-1.355-.808-1.777.5-.695.973-1.414 1.41-2.164.441-.762.813-1.555 1.113-2.371l.106-.094a5.58 5.58 0 0 0 2.023-4.304A5.606 5.606 0 0 0 13.602 0 5.606 5.606 0 0 0 8 5.602c0 1.656.73 3.171 1.914 4.207a34.79 34.79 0 0 0 1.145 3.457l-.012.023c-.344.676-1.059 1.649-1.524 2.16-1.738 1.93-2.085 3.805-2.101 4.95H6v1.203H4.8V24h14v-2.398h-1.198zM14 15.273c.188.415.422.926.629 1.375.215.47.457 1 .488 1.075.551 1.48.547 2.183.457 2.675h-3.969a3.033 3.033 0 0 1-.078-.425c-.004-.02-.004-.04-.007-.059-.012-.14-.016-.277-.012-.422 0-.023.004-.05.004-.078a4.17 4.17 0 0 1 .054-.43.409.409 0 0 1 .016-.066c.031-.152.07-.309.121-.465.195-.574.543-1.137 1.031-1.676a21.868 21.868 0 0 0 1.028-1.215c.078-.097.16-.19.238-.289zM13.602.801a4.804 4.804 0 0 1 3.984 7.472c.02-.074.035-.152.05-.226.02-.102.044-.2.063-.3.043-.208.082-.419.113-.626a1.103 1.103 0 0 0-.59-1.145 1.097 1.097 0 0 0-.85-.07c-.286.09-.517.29-.653.559a5.817 5.817 0 0 1-2.434 2.523l-.84.461a.906.906 0 0 0-.183.13c-.02.019-.032.038-.051.058-.031.035-.066.07-.094.11l-.043.077a.692.692 0 0 0-.086.211c-.004.024-.015.047-.02.07l-.042-.011c-.024-.012-.047-.02-.07-.031a4.313 4.313 0 0 1-.45-.204 4.84 4.84 0 0 1-.886-.586l-.16-.136A4.782 4.782 0 0 1 8.8 5.602C8.8 2.953 10.954.8 13.603.8zm-2.649 9.726c.137.075.281.145.426.207.05.024.101.04.156.059.094.039.188.078.285.11.02.007.04.015.059.019-.004.015-.004.031-.008.047a5.714 5.714 0 0 1-.07.386 4.083 4.083 0 0 1-.086.364c-.024.078-.043.156-.07.226a1.104 1.104 0 0 1-.043.121c-.024.063-.043.125-.07.188v.008a33.41 33.41 0 0 1-.579-1.735zm-.836 5.461c.508-.566 1.262-1.593 1.64-2.336.114-.222.216-.425.31-.62.011-.024.019-.044.03-.063.008-.02.016-.043.028-.063.008-.023.02-.043.027-.066a6.44 6.44 0 0 0 .125-.29c.008-.019.016-.034.02-.05a7.36 7.36 0 0 0 .152-.434 16.078 16.078 0 0 0 .098-.37c.027-.102.047-.208.07-.321l.035-.219c0-.011.004-.02.004-.031l.012.004.027-.266c.004-.047.012-.097.016-.148 0-.016.004-.027.004-.04l.039-.343h-.008c.004-.02.004-.039.008-.059a.145.145 0 0 1 .074-.12l.84-.462a6.64 6.64 0 0 0 2.77-2.87.31.31 0 0 1 .18-.157.317.317 0 0 1 .237.024c.012.003.02.011.032.019.097.066.152.18.136.29a14.717 14.717 0 0 1-.625 2.507l-.05.144c-.29.801-.649 1.579-1.082 2.32-.446.766-.926 1.5-1.442 2.208l-.039.054c-.07.098-.148.188-.219.282-.195.258-.386.511-.586.758-.273.332-.55.656-.835.968-.563.621-.965 1.282-1.196 1.961a3.966 3.966 0 0 0-.136.5l-.024.11a4.186 4.186 0 0 0-.066.488c-.004.023-.004.047-.004.07a3.335 3.335 0 0 0-.004.442c0 .027.004.054.004.086.011.156.031.312.062.464a.147.147 0 0 1 .004.04H8.227c.007-1.012.324-2.676 1.89-4.41zM6.801 21.2h10v.403h-10zM18 22.4v.8H5.602v-.8zm0 0"/>
</svg>
